X:5
T:Jonk Oppi Bergen
R:Schottische
R:Polka
O:Finland
O:Sweden
M:4/4
K:G
B>c dd b/b/b gg|B>c dd g/g/g ff|\
A>B cc ee/c/ dd|ee/c/ dd bb g2::
bg g/a/g fe e/^d/e|c'f f/e/f/g/ ag g/f/g|\
bg g/a/g fe e/^d/e|c'f f/e/f/g/ ag g2::
f/g/a f/g/a fe e>f|gc df/e/ db f2|\
f/g/a f/g/a fe e>f|gc ef/e/ df d2:|
